!!!COM: Palestrina, Giovanni Perluigi da
!!!OPR: Missa Hodie Christus Natus Est
!!!OMD: Benedictus
!!!OTL: First Section
**kern	**kern	**kern	**kern	**kern	**kern	**kern	**kern
*Ibass	*Itenor	*Itenor	*Icalto	*Ibass	*Icalto	*Icant	*Icant
!Bassus	!Tenor 2	!Tenor 1	!Altus	!Bassus	!Altus	!Cantus 2	!Cantus 1
*clefF4	*clefGv2	*clefGv2	*clefG2	*clefF4	*clefG2	*clefG2	*clefG2
*k[]	*k[]	*k[]	*k[]	*k[]	*k[]	*k[]	*k[]
*G:mix	*G:mix	*G:mix	*G:mix	*G:mix	*G:mix	*G:mix	*G:mix
*M4/2	*M4/2	*M4/2	*M4/2	*M4/2	*M4/2	*M4/2	*M4/2
=1	=1	=1	=1	=1	=1	=1	=1
0r	0d	0r	0r	0r	0r	0r	0r
=2	=2	=2	=2	=2	=2	=2	=2
0r	1e	0r	0r	0r	0r	0r	0r
.	1f	.	.	.	.	.	.
=3	=3	=3	=3	=3	=3	=3	=3
0G	2.g	0r	0r	0r	0r	0r	0r
.	4f	.	.	.	.	.	.
.	2e	.	.	.	.	.	.
.	2d	.	.	.	.	.	.
=4	=4	=4	=4	=4	=4	=4	=4
1A	4c	0r	0r	0r	0r	0r	0r
.	4d	.	.	.	.	.	.
.	4e	.	.	.	.	.	.
.	4c	.	.	.	.	.	.
1B	1d	.	.	.	.	.	.
=5	=5	=5	=5	=5	=5	=5	=5
2.c	2c	0r	0r	0r	0r	0r	0r
.	2g	.	.	.	.	.	.
4B	.	.	.	.	.	.	.
2A	2f	.	.	.	.	.	.
2G	2e	.	.	.	.	.	.
=6	=6	=6	=6	=6	=6	=6	=6
4F	2d	1r	0r	0r	0r	0r	0r
4G	.	.	.	.	.	.	.
4A	1c	.	.	.	.	.	.
4F	.	.	.	.	.	.	.
[1G	.	[1d	.	.	.	.	.
.	4B	.	.	.	.	.	.
.	4A	.	.	.	.	.	.
=7	=7	=7	=7	=7	=7	=7	=7
1G]	4B	1d]	0g	0r	0r	0r	0r
.	4c	.	.	.	.	.	.
.	4d	.	.	.	.	.	.
.	4B	.	.	.	.	.	.
2C	2c	1e	.	.	.	.	.
2E	2B	.	.	.	.	.	.
=8	=8	=8	=8	=8	=8	=8	=8
1D	1d	1f	1a	0r	0r	0r	0r
1G	1d	2.g	1b	.	.	.	.
.	.	4f	.	.	.	.	.
=9	=9	=9	=9	=9	=9	=9	=9
0r	0r	2e	2.cc	0r	0r	0r	0r
.	.	2d	.	.	.	.	.
.	.	.	4b	.	.	.	.
.	.	4c	2a	.	.	.	.
.	.	4d	.	.	.	.	.
.	.	4e	2g	.	.	.	.
.	.	4c	.	.	.	.	.
=10	=10	=10	=10	=10	=10	=10	=10
1D	0r	1d	4f	0r	0r	0r	0r
.	.	.	4g	.	.	.	.
.	.	.	4a	.	.	.	.
.	.	.	4f	.	.	.	.
1E	.	2B	1g	.	.	.	.
.	.	2e	.	.	.	.	.
=11	=11	=11	=11	=11	=11	=11	=11
1F	1r	2d	2f	0r	0r	0r	0r
.	.	2.c	2e	.	.	.	.
2.G	2r	.	1d	.	.	.	.
.	.	4B	.	.	.	.	.
.	2d	2B	.	.	.	.	.
4F	.	.	.	.	.	.	.
=12	=12	=12	=12	=12	=12	=12	=12
2E	2e	2c	0r	0r	0r	0r	0r
2D	2f	2d	.	.	.	.	.
4C	1g	4e	.	.	.	.	.
4D	.	4d	.	.	.	.	.
4E	.	[2c	.	.	.	.	.
4C	.	.	.	.	.	.	.
=13	=13	=13	=13	=13	=13	=13	=13
1D	1f	2c]	1r	0r	0r	0r	0r
.	.	2B	.	.	.	.	.
2C	[1e	1c	[1g	.	.	.	.
[2c	.	.	.	.	.	.	.
=14	=14	=14	=14	=14	=14	=14	=14
2c]	2e]	2r	1g]	0r	0r	0r	0r
2B	2d	2d	.	.	.	.	.
1A	1c	2e	1a	.	.	.	.
.	.	2f	.	.	.	.	.
=15	=15	=15	=15	=15	=15	=15	=15
1G	1d	1g	1b	0r	0r	0r	0r
2.A	2r	1e	2.cc	.	.	.	.
.	2c	.	.	.	.	.	.
4G	.	.	4b	.	.	.	.
=16	=16	=16	=16	=16	=16	=16	=16
2F	2d	2f	2a	0r	0r	0r	0r
2E	2e	2g	2g	.	.	.	.
1D	2f	2a	4f	.	.	.	.
.	.	.	4g	.	.	.	.
.	2d	[2f	4a	.	.	.	.
.	.	.	4f	.	.	.	.
=17	=17	=17	=17	=17	=17	=17	=17
1r	1c	2f]	1.g	0r	0r	0r	0r
.	.	2e	.	.	.	.	.
[1G	1g	2d	.	.	.	.	.
.	.	[2c	2e	.	.	.	.
=18	=18	=18	=18	=18	=18	=18	=18
1G]	2r	2c]	1d	0r	0r	0r	0r
.	2g	2B	.	.	.	.	.
1A	2f	1c	1c	.	.	.	.
.	2e	.	.	.	.	.	.
=19	=19	=19	=19	=19	=19	=19	=19
1B	2d	1r	1r	0r	0r	0r	0r
.	2g	.	.	.	.	.	.
2.c	4g	1e	2r	.	.	.	.
.	4f	.	.	.	.	.	.
.	4e	.	2g	.	.	.	.
4B	4d	.	.	.	.	.	.
=20	=20	=20	=20	=20	=20	=20	=20
2A	2c	2f	2a	0r	0r	0r	0r
2G	2d	2g	2b	.	.	.	.
4F	1f	1a	[1cc	.	.	.	.
4G	.	.	.	.	.	.	.
4A	.	.	.	.	.	.	.
4F	.	.	.	.	.	.	.
=21	=21	=21	=21	=21	=21	=21	=21
1G	2e	2.g	2cc]	0r	0r	0r	0r
.	2d	.	2b	.	.	.	.
.	.	4f	.	.	.	.	.
1C	2.c	1e	2a	.	.	.	.
.	.	.	2g	.	.	.	.
.	4B	.	.	.	.	.	.
=22	=22	=22	=22	=22	=22	=22	=22
0D	2A	0d	2f#	0r	0r	0r	0r
.	2G	.	1g	.	.	.	.
.	1A	.	.	.	.	.	.
.	.	.	2f#	.	.	.	.
=23	=23	=23	=23	=23	=23	=23	=23
0G	0B	0d	0g	0r	0r	1r	2r
.	.	.	.	.	.	.	2dd
.	.	.	.	.	.	2r	2dd
.	.	.	.	.	.	2dd	2dd
=24	=24	=24	=24	=24	=24	=24	=24
0r	0r	0r	0r	0r	0r	2dd	4g
.	.	.	.	.	.	.	4a
.	.	.	.	.	.	2dd	4b
.	.	.	.	.	.	.	4cc
.	.	.	.	.	.	4g	4dd
.	.	.	.	.	.	4a	4cc
.	.	.	.	.	.	4b	4dd
.	.	.	.	.	.	4cc	4ee
=25	=25	=25	=25	=25	=25	=25	=25
0r	0r	0r	0r	0r	0r	4dd	2.ff
.	.	.	.	.	.	4cc	.
.	.	.	.	.	.	4dd	.
.	.	.	.	.	.	4ee	4ee
.	.	.	.	.	.	2.ff	2dd
.	.	.	.	.	.	.	2cc
.	.	.	.	.	.	4ee	.
=26	=26	=26	=26	=26	=26	=26	=26
0r	0r	0r	0r	0r	1g	2dd	2b
.	.	.	.	.	.	1cc	2ee
.	.	.	.	.	2g	.	1dd
.	.	.	.	.	2g	2b	.
=27	=27	=27	=27	=27	=27	=27	=27
0r	0r	0r	0r	1r	4c	2ee	1cc
.	.	.	.	.	4d	.	.
.	.	.	.	.	4e	2ee	.
.	.	.	.	.	4f	.	.
.	.	.	.	1G	4g	1dd	2b
.	.	.	.	.	4f	.	.
.	.	.	.	.	4g	.	2b
.	.	.	.	.	4a	.	.
=28	=28	=28	=28	=28	=28	=28	=28
0r	0r	0r	0r	2G	1b	0r	1dd
.	.	.	.	2G	.	.	.
.	.	.	.	4C	2cc	.	1ee
.	.	.	.	4D	.	.	.
.	.	.	.	4E	2cc	.	.
.	.	.	.	4F	.	.	.
=29	=29	=29	=29	=29	=29	=29	=29
0r	0r	0r	0r	4G	1b	2r	2.dd
.	.	.	.	4F	.	.	.
.	.	.	.	4G	.	2gg	.
.	.	.	.	4A	.	.	4cc
.	.	.	.	2B	2r	2gg	2dd
.	.	.	.	[2c	2g	2gg	[2ee
=30	=30	=30	=30	=30	=30	=30	=30
0r	0r	0r	0r	2c]	2g	2cc	2ee]
.	.	.	.	2B	2g	2dd	2dd
.	.	.	.	1A	4c	2ee	1cc
.	.	.	.	.	4d	.	.
.	.	.	.	.	4e	[2cc	.
.	.	.	.	.	4f	.	.
=31	=31	=31	=31	=31	=31	=31	=31
0r	0r	0r	0r	0G	4g	4cc]	2r
.	.	.	.	.	4f	8b	.
.	.	.	.	.	.	8a	.
.	.	.	.	.	4g	2b	2dd
.	.	.	.	.	4a	.	.
.	.	.	.	.	4b	[1g	2dd
.	.	.	.	.	4cc	.	.
.	.	.	.	.	[2b	.	2dd
=32	=32	=32	=32	=32	=32	=32	=32
0r	0r	0r	0r	1E	4b]	2g]	4g
.	.	.	.	.	4a	.	4a
.	.	.	.	.	1g	2g	4b
.	.	.	.	.	.	.	4cc
.	.	.	.	[1D	.	2a	4dd
.	.	.	.	.	.	.	4cc
.	.	.	.	.	2f	2dd	4dd
.	.	.	.	.	.	.	4ee
=33	=33	=33	=33	=33	=33	=33	=33
0r	0r	0r	0r	1D]	4d	2dd	1ff
.	.	.	.	.	4e	.	.
.	.	.	.	.	4f	2dd	.
.	.	.	.	.	4d	.	.
.	.	.	.	1r	2e	4g	2.gg
.	.	.	.	.	.	4a	.
.	.	.	.	.	2e	4b	.
.	.	.	.	.	.	4cc	4ee
=34	=34	=34	=34	=34	=34	=34	=34
0r	0r	0r	0r	0r	4d	4dd	4ff
.	.	.	.	.	4e	4cc	4ee
.	.	.	.	.	4f	4dd	1dd
.	.	.	.	.	4g	4ee	.
.	.	.	.	.	[1a	2ff	.
.	.	.	.	.	.	4ee	4cc#
.	.	.	.	.	.	4dd	4b
=35	=35	=35	=35	=35	=35	=35	=35
0r	0r	0r	0r	1A	0a]	2ee	2cc#
.	.	.	.	.	.	1dd	2dd
.	.	.	.	2A	.	.	1ee
.	.	.	.	2A	.	2cc#	.
=36	=36	=36	=36	=36	=36	=36	=36
0r	0r	0r	0r	4D	2r	2dd	1ff
.	.	.	.	4E	.	.	.
.	.	.	.	4F	2a	2a	.
.	.	.	.	4G	.	.	.
.	.	.	.	4A	2a	2.cc	2ee
.	.	.	.	4G	.	.	.
.	.	.	.	4A	2a	.	2ee
.	.	.	.	4B	.	4dd	.
=37	=37	=37	=37	=37	=37	=37	=37
0r	0r	0r	0r	1c	2g	1.ee	2cc
.	.	.	.	.	2.c	.	2.gg
.	.	.	.	2.C	.	.	.
.	.	.	.	.	4d	.	4ff
.	.	.	.	.	4e	[2gg	[2ee
.	.	.	.	4D	4f	.	.
=38	=38	=38	=38	=38	=38	=38	=38
0r	0r	0r	0r	2.E	1g	4gg]	4ee]
.	.	.	.	.	.	4ff	4dd
.	.	.	.	.	.	2ee	1cc
.	.	.	.	4F	.	.	.
.	.	.	.	2G	1g	2dd	.
.	.	.	.	2G	.	2dd	2b
*-	*-	*-	*-	*-	*-	*-	*-
!!!CDT: 1525/^1526/-1594/2/2
!!!OCY: Italia
!!!AGN: Mass (Parody)
!!!AST: renaissance, vocal
!!!ASW: Motet 1575 (Palestrina)
!!!PWK: Masses, Book 8vce
!!!RNB: Cadence finals: C,D
!!!YOR: Le Opere Complete, v. 30, p. 59
!!!YOO: Rome, Italy: Fratelli Scalera
!!!END: 1992//
!!!EED: John Miller
!!!YEC: Copyright 2000, John Miller
!!!YEN: United States of America
!!!YEM: Rights to all derivative electronic formats reserved.
!!!YEM: Refer to licensing agreement for further details.
!!!YEM: This file must be accompanied by the licensing agreement.
!!!YEM: A copy of the licensing agreement may be found at http://www.music-cog.ohio-state.edu/HumdrumDatabases/Palestrina/license.txt
!!!EMD: converted to Humdrum by Bret Aarden
